!!!OTL: WIE SCHEINEN DIE STERNLEIN SO HELL
!!!ARE: Europa, Mitteleuropa, Deutschland, Rheinland
!!!SCT: B0502A
!!!YEM: Copyright 1995, estate of Helmut Schaffrath.
**kern
*ICvox
*Ivox
*M6/8
*k[f#]
*G:
{8d
=1
8d
8B
8c
8d
8g
8b
=2
4b
8a
4f#}
{8d
=3
8g
8a
8b
8dd
8cc
8b
=4
2a
8r}
{8a
=5
8a
8b
8a
8g
8ee
8dd
=6
4dd
8cc
4b}
{8b
=7
4a
8b
4cc
8dd
=8
2b
8r}
{8a
=9
4f#
8g
4a
8b
=10
2g
8r}
==
!!!AGN: Abschieds - Lied
!!!ONB: ESAC (Essen Associative Code) Database: BOEHME
!!!AMT: compound duple
!!!AIN: vox
!!!EED: Helmut Schaffrath
!!!EEV: 1.0
*-
